X:1
T:Chiapas, 87.87 D
T:Chiapas, 87.87 D
T:Ferd Degen, arr. Peter P. Bilhorn, 1901
T:Public Domain Courtesy of the Cyber Hymnal™
C:Ferd Degen, arr. Peter P. Bilhorn, 1901
Z:Public Domain
Z:Courtesy of the Cyber Hymnal™
%%score ( 1 2 ) ( 3 4 )
L:1/8
Q:1/4=93
M:3/4
K:Ab
V:1 treble 
V:2 treble 
V:3 bass 
V:4 bass 
V:1
 [CE]>[Ec] | [DB]2 [CA]2 [CE]>[CA] | [CA]2 [EG]2 [GB]>[Ac] | [Gd]3 [EG] [EA]>[EB] | %4
 [Ec]4 [Ec]>[Ed] | [Ee]2 [EA]2 [GB]>[_Gc] | [Fd]2 [DF]2 [DG]>[DF] | [CE]3 [Ac] [Ac]>[EB] | %8
 [EA]4 [GB]>[Ac] | [Bd]4- [Bd]>[Bd][Ac]>[GB] | [Ac]4 [CA]2 [GB]>[Ac] | [Gd]4- [Gd]>[Gd][Ac]>[GB] | %12
 [Ac]6 [Ac]>[Bd] | [ce]4- [ce]>A[GB]>[_Gc] | [Fd]4 [DF]2 [EG]>[DF] | %15
 [CE]4- [CE]>[Ac] [Ac]/!fermata![GB][EA]/ | A4- !fermata![EA]2 |] %17
V:2
 x2 | x6 | x6 | x6 | x6 | x6 | x6 | x6 | x6 | x8 | x8 | x8 | x8 | x11/2 A/ x2 | x8 | x8 | %16
 E2 FF x2 |] %17
V:3
 [A,,A,]>[A,,A,] | [A,,A,]2 [A,,E,]2 [A,,A,]>[A,,E,] | E,2 [E,D]2 [E,D]>[E,D] | %3
 [E,B,]3 [E,D] [E,C]>[E,G,] | [A,,A,]4 A,>[A,B,] | [A,C]2 [A,C]2 [C,B,]>[C,A,] | %6
 [D,A,]2 [D,A,]2 [D,B,]>[D,A,] | [E,A,]3 [E,E] [E,E]>[E,D] | [A,C]4 z2 | %9
 z3/2 [E,G,]/ [F,A,]>[=D,F,] [E,G,]3/2 z/ z2 | z3/2 [A,,E,]/ [A,,F,]>[A,,E,] [A,,=D,]>[A,,E,] z2 | %11
 z3/2 [E,E]/ [E,E]>[E,E] [E,E]>[E,E][E,E]>[E,E] | [A,E]6 z2 | %13
 z3/2 [A,,A,]/ [C,A,]>[E,A,] A,3/2 z/ z2 | z3/2 [D,A,]/ [D,B,]>[D,B,] [D,A,]>[D,A,] z2 | %15
 z2 [A,,A,]>[A,,A,] [A,,A,]>E, E/!fermata!D[A,,C]/ | C2 DD [A,,C]2 |] %17
V:4
 x2 | x6 | E,2 x4 | x6 | x4 A,3/2 x/ | x6 | x6 | x6 | x6 | x8 | x8 | x8 | x8 | x4 A,3/2 x5/2 | x8 | %15
 x11/2 E,<E, x/ | A,,4- x2 |] %17

